!!!OTL: Silvy
!!!ONM: 25.
**kern
*clefG2
*k[b-e-]
*B-:
*M3/4
*MM92
{8B-
=1
8f
8g
4f
8c
8B-
=2
8B-
8A
4.B-}
{8c
=3
8d
8f
4.b-
8b-
=4
8a
8a
4.f}
{16d
16c
=5
8B-
8B-
4.b-
16cc
16dd
=6
8b-
8a
4.b-}
{8f
=7
8f
8g
4.f
16d
16B-
=8
8B-
8A
4.B-}
==
*-
!!!CNT: Folksongs of Maritime Canada
!!!MRD: 1928///-1932///
!!!OCL: Helen Creighton
!!!YOR: Songs and Ballads from Nova Scotia
!!!PPR: J.M. Dent & Sons, Limited
!!!PPP: Toronto, Canada
!!!PDT: 1932///
!!!reprint: Dover Publications, 1992: ISBN 0-486-21703-5
!!!ENC1: Craig Stuart Sapp (music and bibliographic data)                       
!!!ENC2: Marcus Pearce (phrase markings and key designations)                   
!!!ENC3: Darrell Conklin (phrase markings and key designations)   
!!!END: 2002/04/10/
!!!EEV: 2004/06/05
!!!MPN: Mr. Ben Henneberry
!!!PPG: 51
!!!EFL: 25/152
!!!ARE: Canada; Nova Scotia
!!!verses: 7
!!!VTS: 3319264703
